!!!COM: Mozart, Wolfgang Amadeus
!!!CDT: 1756/01/27/-1791/12/05/
!!!CNT: German
!!!OTL: Piano Sonata No. 14 in C minor
!!!SCT1: K<sup>1</sup> 310
!!!SCT2: K<sup>6</sup> 300d
!!!OMV: Mvmt. 3
!!!OMD: Molto allegro
!!!ODT: 1784///
**kern	**kern	**dynam
*staff2	*staff1	*staff1/2
*clefF4	*clefG2	*clefG2
*k[b-e-a-]	*k[b-e-a-]	*k[b-e-a-]
*c:	*c:	*c:
*M3/4	*M3/4	*M3/4
*MM300	*MM300	*MM300
4r	[4gg\	p
*clefG2	*	*
=1	=1	=1
2.c/ 2.e-/	(4gg\]	.
.	4ee-\)	.
.	[4cc\	.
=2	=2	=2
2.d/ 2.f/	(4cc\]	.
.	4bn\)	.
.	[4aa-\	.
=3	=3	=3
2.Bn/ 2.d/	(4aa-\]	.
.	4gg\)	.
.	[4ff\	.
=4	=4	=4
2.c/ 2.g/	(4ff\]	.
.	4ee-\)	.
.	[4gg\	.
=5	=5	=5
*^	*	*
2.g/	2e-\	(4gg\]	.
.	.	4ccc\)	.
.	4en\	[4bb-\	.
=6	=6	=6	=6
2a-/	2f\	(4bb-\]	.
.	.	4aa-\	.
4b-/	4g\	[4gg\)	.
=7	=7	=7	=7
[2.cc/	2a-\	(4gg\]	.
.	.	4ff\	.
.	4an\	[4ff#\)	.
=8	=8	=8	=8
(4cc/]	2g\	(4ff#\]	.
4bn/)	.	4gg\)	.
4r	4r	[4g/	.
*v	*v	*	*
*clefF4	*	*
=9	=9	=9
2.C\ 2.E-\	(4g/]	.
.	4e-/)	.
.	[4c/	.
=10	=10	=10
2.D\ 2.F\	(4c/]	.
.	4Bn/)	.
.	[4a-/	.
=11	=11	=11
2.BBn/ 2.D/	(4a-/]	.
.	4g/)	.
.	[4fn/	.
=12	=12	=12
2.BB-/ 2.D-/	(4f/]	.
.	4en/)	.
.	[4dd-\	.
=13	=13	=13
*^	*	*
2G/	2.En\	(4dd-\]	.
.	.	4cc\	.
[4c/	.	4b-\	.
=14	=14	=14	=14
2.c/]	(4F\	4a-/	.
.	4G\	4g/	.
.	4A-\	4f#/	.
*v	*v	*	*
=15	=15	=15
4G\	4e-/ 4g/)	.
4r	(4c/ 4e-/	.
4GG/ 4F/	4Bn/) 4d/	.
=16	=16	=16
4C/ 4E-/	4c/	.
4r	4r	.
4r	(16ff\LL	f
.	16ee-\	.
.	16dd\	.
.	16cc\JJ	.
=17	=17	=17
*^	*	*
4d/	8Bn\L	4gg\)	.
.	8G\	.	.
4e-/	8c\	4g\ 4gg\	.
.	8G\	.	.
4f/	8d\	4g\ 4gg\	.
.	8G\J	.	.
=18	=18	=18	=18
4e-/	8c\L	2g\ 2gg\	.
.	8G\	.	.
4e-/	8c\	.	.
.	8G\	.	.
4e-/	8c\	(16ff\LL	.
.	.	16ee-\	.
.	8G\J	16dd\	.
.	.	16cc\JJ	.
=19	=19	=19	=19
4d/	8Bn\L	4gg\)	.
.	8G\	.	.
4e-/	8c\	4g\ 4gg\	.
.	8G\	.	.
4f/	8d\	4g\ 4gg\	.
.	8G\J	.	.
=20	=20	=20	=20
4e-/	8c\L	2g\ 2gg\	.
.	8G\	.	.
4e-/	8c\	.	.
.	8G\	.	.
4e-/	8c\	(16ff\LL	.
.	.	16ee-\	.
.	8G\J	16dd\	.
.	.	16cc\JJ)	.
*v	*v	*	*
=21	=21	=21
4r	4bn\ 4dd\ 4aa-\	.
4FF/ 4F/	4r	.
4F\ 4f\	4r	.
=22	=22	=22
4r	4cc\ 4ee-\ 4gg\	.
4EE-/ 4E-/	4r	.
4E-\ 4e-\	4r	.
=23	=23	=23
4D\ 4d\	4r	.
4r	4dd\ 4ff\ 4bbn\	.
4r	4ff\ 4bb\ 4ddd\	.
=24	=24	=24
4BBn'\ 4Bn'\	4gg'\ 4ddd'\ 4fff'\	.
4r	4r	.
4r	4r	.
=25	=25	=25
2.r;	2.r;	.
=26	=26	=26
2.r	(2.ee-\	p
=27	=27	=27
2.c\ 2.e-\	2.f#/)	.
=28	=28	=28
2Bn\ 2d\ (2fn\	(4.g/	.
.	8a-/	.
4c\ 4e-\)	4g/)	.
=29	=29	=29
4F\	(8e-/ 8g/L	.
.	8d/) 8f/J	.
4G\	4c/ 4e-/	.
4GG/	4Bn/ 4d/	.
=30	=30	=30
4C/	4c/	.
4r	4r	.
4r	(16ff\LL	f
.	16ee-\	.
.	16dd\	.
.	16cc\JJ	.
=31	=31	=31
*^	*	*
4d/	8Bn\L	4gg\)	.
.	8G\	.	.
4e-/	8c\	4g\ 4gg\	.
.	8G\	.	.
4f/	8d\	4g\ 4gg\	.
.	8G\J	.	.
=32	=32	=32	=32
4e-/	8c\L	2g\ 2gg\	.
.	8G\	.	.
4e-/	8c\	.	.
.	8G\	.	.
4e-/	8c\	(16ff\LL	.
.	.	16ee-\	.
.	8G\J	16dd\	.
.	.	16cc\JJ	.
=33	=33	=33	=33
4d/	8Bn\L	4gg\)	.
.	8G\	.	.
4e-/	8c\	4g\ 4gg\	.
.	8G\	.	.
4f/	8d\	4g\ 4gg\	.
.	8G\J	.	.
=34	=34	=34	=34
4e-/	8c\L	2g\ 2gg\	.
.	8G\	.	.
4e-/	8c\	.	.
.	8G\	.	.
4e-/	8c\	(16ff\LL	.
.	.	16ee-\	.
.	8G\J	16dd\	.
.	.	16cc\JJ)	.
*v	*v	*	*
=35	=35	=35
4r	4bn\ 4dd\ 4aa-\	.
4FF/ 4F/	4r	.
4F\ 4f\	4r	.
=36	=36	=36
4r	4cc\ 4ee-\ 4gg\	.
4EE-/ 4E-/	4r	.
4E-\ 4e-\	4r	.
=37	=37	=37
4D\ 4d\	4r	.
4r	4dd\ 4ff\ 4bbn\	.
4r	4ff\ 4bb\ 4ddd\	.
=38	=38	=38
4BBn'\ 4Bn'\	4gg'\ 4ddd'\ 4fff'\	.
4r	4r	.
4r	4r	.
=39	=39	=39
2.r;	2.r;	.
=40	=40	=40
2.r	(2.ee-\	p
=41	=41	=41
2.c\ 2.e-\	2.f#/)	.
=42	=42	=42
2Bn\ 2d\ (2fn\	(4.g/	.
.	8a-/	.
4c\ 4e-\)	4g/)	.
=43	=43	=43
4F\	(8e-/ 8g/L	.
.	8d/) 8f/J	.
4G\	4c/ 4e-/	.
4GG/	4Bn/ 4d/	.
=44	=44	=44
4C/	4c/	.
4r	4r	.
4r	4r	.
=45	=45	=45
*^	*	*
2.F;/ 2.A-;/ 2.B-;/	2.BBB-;\ 2.BB-;\	2.d;/	f
*v	*v	*	*
=46	=46	=46
(8E-\L	2.r	.
8G\	.	.
8B-\	.	.
8G\	.	.
8B-\	.	.
8G\J	.	.
=47	=47	=47
8E-\L	4r	.
8G\	.	.
8B-\	4b-\	.
8G\	.	.
8B-\	4b-\	.
8G\J	.	.
=48	=48	=48
8E-\L	(4.b-\	.
8F\	.	.
8A-\	.	.
8F\	8cc\	.
8A-\	4b-\)	.
8F\J	.	.
=49	=49	=49
8E-\L	(2aa-\	.
8F\	.	.
8A-\	.	.
8F\	.	.
8A-\	4dd\)	.
8F\J	.	.
=50	=50	=50
8E-\L	(2ff\	.
8G\	.	.
8B-\	.	.
8G\	.	.
8B-\	4ee-\)	.
8G\J	.	.
=51	=51	=51
8E-\L	4r	.
8G\	.	.
8B-\	4b-\	.
8G\	.	.
8B-\	4b-\	.
8G\J	.	.
=52	=52	=52
8E-\L	(8an\L	.
8F\	8b-\	.
8A-\	8cc\	.
8F\	8dd-\	.
8A-\	8ddn\	.
8F\J	8ee-\J	.
=53	=53	=53
8E-\L	8een\L	.
8F\	8ff\	.
8A-\	8ff#\	.
8F\	8gg\	.
8A-\	8aa-\	.
8F\J	8dd\J	.
=54	=54	=54
8E-\L	2ffn\	.
8G\	.	.
8B-\	.	.
8G\	.	.
8B-\	4ee-\)	.
8G\J	.	.
=55	=55	=55
8E-\L	4r	.
8G\	.	.
8B-\	(4ee-'\	.
8G\	.	.
8B-\	4ee-'\)	.
8G\J	.	.
=56	=56	=56
8C\L	(4.ee-\	f
8E-\	.	.
8An\	.	.
8E-\	24ff\LL	.
.	24ee-\	.
.	24dd\JJ	.
8A\	8ee-\L	.
8E-\J	8ff'\J)	.
=57	=57	=57
8C-\L	(2gg-\	.
8E-\	.	.
8G-\	.	.
8E-\	.	.
8G-\	4an/)	.
8E-\J	.	.
=58	=58	=58
4BB-/ 4D/)	4b-\	.
4B-\	8r	.
.	(8b-/L	p
4r	8an/	.
.	8b-/J	.
=59	=59	=59
4r	8bn\L	.
.	8cc\	.
4r	8dd-\	.
.	8ddn\	.
4c-\ (4e-\	8ee-\	.
.	8an\J	.
=60	=60	=60
4B-\ 4d\)	4b-\)	.
4BB-/	8r	.
.	(8B-/L	.
4r	8An/	.
.	8B-/J	.
=61	=61	=61
4r	8B-/L	.
.	8c/	.
4r	8d-/	.
.	8dn/	.
(4C-/ 4E-/	8e-/	.
.	8An/J	.
=62	=62	=62
4BB-/) 4D/	4B-/)	.
4BBB-/	8r	.
.	(8aan\L	.
4r	8bb-\	.
.	8aa\J	.
=63	=63	=63
4r	4bb-\)	.
4B-\	8r	.
.	(8an/L	.
4r	8b-/	.
.	8a/J	.
=64	=64	=64
4r	4b-/)	.
4BB-/	8r	.
*	*clefF4	*clefF4
.	(8An\L	.
4r	8B-\	.
.	8A\J	.
=65	=65	=65
4r	4B-\)	.
4BBB-/	8r	.
.	(8AAn/L	.
4r	8BB-/	.
.	8AA/J	.
=66	=66	=66
2.r	8BB-/L	.
.	8BBn/	.
.	8C/)	.
.	8BB-'/	f
.	8AA-'/	.
.	8GG'/J	.
=67	=67	=67
8FF'/L	2.r	.
8EE-'/	.	.
8DD'/	.	.
8CC'/	.	.
8BBB-'/	.	.
8AAA-'/J	.	.
=68	=68	=68
2.GGG/	2.r	f
*	*clefG2	*clefG2
=69	=69	=69
2.GG/	[2.ee-\ [2.eee-\	f
=70	=70	=70
2.AA-/	4ee-\] (4eee-\]	.
.	4bn\ 4bbn\	.
.	4cc\ 4ccc\)	.
=71	=71	=71
2.A-\ 2.c\	4en\ (4een\	.
.	4f\ 4ff\	.
.	4a-\ 4aa-\)	.
=72	=72	=72
*^	*	*
4r	2r	([2.ee-\	p
4r	.	.	.
*clefG2	*clefG2	*	*
4g-/	4An\	.	.
=73	=73	=73	=73
*	*	*^	*
(2gn/	2.B-\	2r	2ee-\]	.
4a-/)	.	8gg/L	4dd\	.
.	.	8ff/J	.	.
*v	*v	*	*	*
*	*v	*v	*
*clefF4	*	*
=74	=74	=74
(8E-\L	4ee-\)	f
8B-\	.	.
8G\	8r	.
8B-\	8ee-'\L	p
8E-\	8dd'\	.
8B-\J	8ee-'\J	.
=75	=75	=75
8D\L	(8een\L	f
8B-\	8ff\J)	.
8A-\	8r	.
8B-\	8ff'\L	p
8D\	8ee'\	.
8B-\J	8ff'\J	.
=76	=76	=76
8D-\L	(8ff#\L	f
8B-\	8gg\J)	.
8E-\	8r	.
8B-\	8gg'\L	p
8D-\	8ff#'\	.
8B-\J	8gg'\J	.
=77	=77	=77
8C\L	(8gg\L	f
8A-\	8aa-\J)	.
8E-\	8r	.
8A-\	8aa-'\L	p
8C\	8gg'\	.
8A-\J)	8aa-'\J	.
=78	=78	=78
4GG/	(8bb-\L	.
.	8gg\	.
4r	8eee-\)	.
.	8eee-'\	.
4r	8eee-'\	.
.	8eee-'\J	.
=79	=79	=79
4A-\ 4f\	8r	.
.	(8ff\L	.
4r	8ccc\)	.
.	8ccc'\	.
4r	8ccc'\	.
.	8ccc'\J	.
=80	=80	=80
4B-\ 4g\	8r	.
.	(8ee-\L	.
4r	8bb-\)	.
.	8bb-'\	.
4r	8bb-'\	.
.	8bb-'\J	.
=81	=81	=81
4B-\ 4f\	8r	.
.	(8a-\L	.
4r	8dd\)	.
.	8dd'\	.
4r	8dd'\	.
.	8dd'\J	.
=82	=82	=82
(8E-\L	4g'\ 4b-'\ 4ee-'\	f
8B-\	.	.
8G\	8r	.
8B-\	8e-'/L	p
8E-\	8d'/	.
8B-\J	8e-'/J	.
=83	=83	=83
8D\L	(8en/L	f
8B-\	8f/J)	.
8A-\	8r	.
8B-\	8f'/L	p
8D\	8e'/	.
8B-\J	8f'/J	.
=84	=84	=84
8D-\L	(8f#/L	f
8B-\	8g/J)	.
8E-\	8r	.
8B-\	8g'/L	p
8D-\	8f#'/	.
8B-\J	8g'/J	.
=85	=85	=85
8C\L	(8g/L	f
8A-\	8a-/J)	.
8E-\	8r	.
8A-\	8a-'/L	p
8C\	8g'/	.
8A-\J)	8a-'/J	.
=86	=86	=86
4GG/	(8b-\L	.
.	8g\	.
4r	8ee-\)	.
.	8ee-'\	.
4r	8ee-'\	.
.	8ee-'\J	.
=87	=87	=87
4AA-/ 4F/	8r	.
.	(8f/L	.
4r	8cc/)	.
.	8cc'/	.
4r	8cc'/	.
.	8cc'/J	.
=88	=88	=88
4BB-\ 4G\	8r	.
.	(8e-/L	.
4r	8b-/)	.
.	8b-'/	.
4r	8b-'/	.
.	8b-'/J	.
*	*clefF4	*clefF4
=89	=89	=89
4BB-\ 4F\	8r	.
.	(8A-\L	.
4r	8d\)	.
.	8d'\	.
4r	8d'\	.
.	8d'\J	.
=90	=90	=90
4E-\	(8e-\L	.
.	8B-\	.
4r	8G\	.
.	8B-\	.
4r	8G\	.
.	8B-\J	.
=91	=91	=91
(4BB-/	8A-\L	.
.	8B-\	.
4C/	8A-\	.
.	8B-\	.
4D\	8A-\	.
.	8B-\J)	.
=92	=92	=92
4E-\)	(8G/L	.
.	8E-/	.
4r	8BB-/	.
.	8E-/	.
4r	8GG/	.
.	8BB-/J)	.
=93	=93	=93
(4B-\	(8AA-/L	.
.	8BB-/	.
4c\	8AA-/	.
.	8BB-/	.
4d\	8AA-/	.
.	8BB-/J)	.
=94	=94	=94
4e-\)	(8GG/L	.
.	8EE-/	.
4r	8BBB-/	.
.	8EE-/	.
4r	8GGG/	.
.	8BBB-/J	.
*clefG2	*	*
=95	=95	=95
(4b-\	8AAA-/L	.
.	8BBB-/	.
4cc\	8AAA-/	.
.	8BBB-/	.
4dd\	8AAA-/	.
.	8BBB-/J)	.
=96	=96	=96
4ee-\)	(4.GGG/	.
4r	.	.
.	8BBB-/	.
4r	8EE-/L	.
.	8BBB-/J	.
=97	=97	=97
2.r	8GG/L	.
.	8EE-/	.
.	8BB-/	.
.	8GG/	.
.	8E-/	.
.	8BB-/J)	.
*clefF4	*	*
=98	=98	=98
2.EE-/ 2.FF/ 2.AAn/	(8E-\L	.
.	8C\	.
.	8An\	.
.	8E-\	.
.	8c\	.
.	8A\J	.
*	*clefG2	*clefG2
=99	=99	=99
2.E-\ 2.F\ 2.An\	8f/L	.
.	8c/	.
.	8an/	.
.	8f/	.
.	8cc/	.
.	8a/J)	.
=100	=100	=100
2.D\ 2.F\ 2.Bn\	(8a-/L	.
.	8f/	.
.	8bn/	.
.	8a-/	.
.	8dd/	.
.	8b/J	.
=101	=101	=101
2.C\ 2.D\ 2.A-\	8ff\L	.
.	8dd\	.
.	8aa-\	.
.	8ff\	.
.	8ddd\	.
.	8aa-\J	.
=102	=102	=102
4BBn\ 4D\ 4G\	4fff\)	.
4r	4r	.
4r	4r	.
=103	=103	=103
2.r	4r	.
.	4r	.
.	[4gg\	p
*clefG2	*	*
=104	=104	=104
2.c/ 2.e-/	(4gg\]	.
.	4ee-\)	.
.	[4cc\	.
=105	=105	=105
2.d/ 2.f/	(4cc\]	.
.	4bn\)	.
.	[4aa-\	.
=106	=106	=106
2.Bn/ 2.d/	(4aa-\]	.
.	4gg\)	.
.	[4ff\	.
=107	=107	=107
2.c/ 2.g/	(4ff\]	.
.	4ee-\)	.
.	[4gg\	.
=108	=108	=108
*^	*	*
2.g/	2e-\	(4gg\]	.
.	.	4ccc\)	.
.	4en\	[4bb-\	.
=109	=109	=109	=109
2a-/	2f\	(4bb-\]	.
.	.	4aa-\	.
4b-/	4g\	[4gg\)	.
=110	=110	=110	=110
[2.cc/	2a-\	(4gg\]	.
.	.	4ff\	.
.	4an\	[4ff#\)	.
=111	=111	=111	=111
(4cc/]	2g\	(4ff#\]	.
4bn/)	.	4gg\)	.
4r	4r	[4g/	.
*v	*v	*	*
*clefF4	*	*
=112	=112	=112
2.C\ 2.E-\	(4g/]	.
.	4e-/)	.
.	[4c/	.
=113	=113	=113
2.D\ 2.F\	(4c/]	.
.	4Bn/)	.
.	[4a-/	.
=114	=114	=114
2.BBn/ 2.D/	(4a-/]	.
.	4g/)	.
.	[4fn/	.
=115	=115	=115
2.BB-/ 2.D-/	(4f/]	.
.	4en/)	.
.	[4dd-\	.
=116	=116	=116
*^	*	*
2G/	2.En\	4dd-\]	.
.	.	4cc\	.
[4c/	.	4b-\	.
=117	=117	=117	=117
2.c/]	(4F\	4a-/	.
.	4G\	4g/	.
.	4A-\	4f#/	.
*v	*v	*	*
=118	=118	=118
4G\	4e-/ 4g/)	.
4r	(4c/ 4e-/	.
4GG/ 4F/	4Bn/) 4d/	.
=119	=119	=119
4C\ 4E-\	4c/	.
4r	4r	.
4r	16ff\LL	f
.	16ee-\	.
.	16dd\	.
.	16cc\JJ	.
=120	=120	=120
*^	*	*
4d/	8Bn\L	4gg\	.
.	8G\	.	.
4e-/	8c\	4g\ 4gg\	.
.	8G\	.	.
4f/	8d\	4g\ 4gg\	.
.	8G\J	.	.
=121	=121	=121	=121
4e-/	8c\L	2g\ 2gg\	.
.	8G\	.	.
4e-/	8c\	.	.
.	8G\	.	.
4e-/	8c\	16ff\LL	.
.	.	16ee-\	.
.	8G\J	16dd\	.
.	.	16cc\JJ	.
=122	=122	=122	=122
4d/	8Bn\L	4gg\	.
.	8G\	.	.
4e-/	8c\	4g\ 4gg\	.
.	8G\	.	.
4f/	8d\	4g\ 4gg\	.
.	8G\J	.	.
=123	=123	=123	=123
4e-/	8c\L	2g\ 2gg\	.
.	8G\	.	.
4e-/	8c\	.	.
.	8G\	.	.
4e-/	8c\	16ff\LL	.
.	.	16ee-\	.
.	8G\J	16dd\	.
.	.	16cc\JJ)	.
*v	*v	*	*
=124	=124	=124
4r	4bn\ 4dd\ 4aa-\	.
4FF/ 4F/	4r	.
4F\ 4f\	4r	.
=125	=125	=125
4r	4cc\ 4ee-\ 4gg\	.
4EE-/ 4E-/	4r	.
4E-\ 4e-\	4r	.
=126	=126	=126
4D\ 4d\	4r	.
4r	4dd\ 4ff\ 4bbn\	.
4r	4ff\ 4bb\ 4ddd\	.
=127	=127	=127
4BBn'\ 4Bn'\	4gg'\ 4ddd'\ 4fff'\	.
4r	4r	.
4r	4r	.
=128	=128	=128
2.r;	2.r;	.
=129	=129	=129
2.r	(2.ee-\	p
=130	=130	=130
2.c\ 2.e-\	2.f#/)	.
=131	=131	=131
2Bn\ 2d\ (2fn\	(4.g/	.
.	8a-/	.
4c\ 4e-\)	4g/)	.
=132	=132	=132
4F\	(8e-/ 8g/L	.
.	8d/) 8f/J	.
4G\	4c/ 4e-/	.
4GG/	4Bn/ 4d/	.
=133	=133	=133
4C/	4c/	.
4r	4r	.
4r	(16ff\LL	f
.	16ee-\	.
.	16dd\	.
.	16cc\JJ	.
=134	=134	=134
*^	*	*
4d/	8Bn\L	4gg\)	.
.	8G\	.	.
4e-/	8c\	4g\ 4gg\	.
.	8G\	.	.
4f/	8d\	4g\ 4gg\	.
.	8G\J	.	.
=135	=135	=135	=135
4e-/	8c\L	2g\ 2gg\	.
.	8G\	.	.
4e-/	8c\	.	.
.	8G\	.	.
4e-/	8c\	(16ff\LL	.
.	.	16ee-\	.
.	8G\J	16dd\	.
.	.	16cc\JJ	.
=136	=136	=136	=136
4d/	8Bn\L	4gg\)	.
.	8G\	.	.
4e-/	8c\	4g\ 4gg\	.
.	8G\	.	.
4f/	8d\	4g\ 4gg\	.
.	8G\J	.	.
=137	=137	=137	=137
4e-/	8c\L	2g\ 2gg\	.
.	8G\	.	.
4e-/	8c\	.	.
.	8G\	.	.
4e-/	8c\	(16ff\LL	.
.	.	16ee-\	.
.	8G\J	16dd\	.
.	.	16cc\JJ)	.
*v	*v	*	*
=138	=138	=138
4r	4bn\ 4dd\ 4aa-\	.
4FF/ 4F/	4r	.
4F\ 4f\	4r	.
=139	=139	=139
4r	4cc\ 4ee-\ 4gg\	.
4EE-/ 4E-/	4r	.
4E-\ 4e-\	4r	.
=140	=140	=140
4D\ 4d\	4r	.
4r	4dd\ 4ff\ 4bbn\	.
4r	4ff\ 4bb\ 4ddd\	.
=141	=141	=141
4BBn'\ 4Bn'\	4gg'\ 4ddd'\ 4fff'\	.
4r	4r	.
4r	4r	.
=142	=142	=142
2.r;	2.r;	.
=143	=143	=143
4D-\ 4d-\	4r	.
4BB-\ 4B-\	4g\ 4b-\ 4een\	.
4GG/ 4G/	4b-\ 4ee\ 4gg\	.
=144	=144	=144
4EEn'/ 4En'/	4dd-'\ 4gg'\ 4bb-'\	p
4r	4r	.
4r	4r	.
=145	=145	=145
2.r;	2.r;	.
=146	=146	=146
(4F\	2.r	.
4A-\	.	.
4c\	.	.
=147	=147	=147
4En\	2.r	.
4G\	.	.
4B-\	.	.
=148	=148	=148
4F\	4cc\	.
4A-\	4r	.
4c\	4r	.
=149	=149	=149
4En\	4cc\	.
4G\	4r	.
4B-\	8r	.
.	(8cc\	.
=150	=150	=150
4F\	2dd-\	.
4A-\	.	.
4c\	4cc\)	.
=151	=151	=151
4En\	4r	.
4G\	4r	.
4B-\	8r	.
.	(8ccc\	.
=152	=152	=152
4F\	2ddd-\	.
4A-\	.	.
4c\	4ccc\)	.
=153	=153	=153
4E-\	2.r	.
4G\	.	.
4c\)	.	.
=154	=154	=154
4Dn'\	4d'/	.
4C\ 4c\	4an\ 4cc\ 4ff#\	f
4AAn\ 4An\	4cc\ 4ff#\ 4aan\	.
=155	=155	=155
4FF#'/ 4F#'/	4ee-'\ 4aan'\ 4ccc'\	p
4r	4r	.
4r	4r	.
=156	=156	=156
2.r;	2.r;	.
=157	=157	=157
(4G\	2.r	.
4B-\	.	.
4d\	.	.
=158	=158	=158
4F#\	2.r	.
4An\	.	.
4c\	.	.
=159	=159	=159
4G\	4dd\	.
4B-\	4r	.
4d\	4r	.
=160	=160	=160
4F#\	4dd\	.
4An\	4r	.
4c\	8r	.
.	(8dd\	.
=161	=161	=161
4G\	2ee-\	.
4B-\	.	.
4d\	4dd\)	.
=162	=162	=162
4F#\	4r	.
4An\	4r	.
4c\	8r	.
.	(8ddd\	.
=163	=163	=163
4G\	2eee-\	.
4B-\	.	.
4d\	4ddd\)	.
=164	=164	=164
4G\	4r	.
4Bn\	4r	.
4d\)	8r	.
.	8g\ 8gg\	.
=165	=165	=165
[2.Bn\ [2.d\ [2.f\	(2.a-\ (2.aa-\	.
=166	=166	=166
4B\] 4d\] 4f\]	4g\) 4gg\)	p
4r	4r	.
4r	4r	.
=167	=167	=167
(8C\L	2.r	.
8E-\	.	.
8G\	.	.
8E-\	.	.
8G\	.	.
8E-\J	.	.
=168	=168	=168
8C\L	4r	.
8E-\	.	.
8G\	(4g'/	.
8E-\	.	.
8G\	4g'/)	.
8E-\J	.	.
=169	=169	=169
8C\L	(4.g/	.
8D\	.	.
8F\	.	.
8D\	8a-/	.
8F\)	4g/)	.
8D\J	.	.
=170	=170	=170
(8C\L	(2ff\	.
8D\	.	.
8F\	.	.
8D\	.	.
8F\	4bn\)	.
8D\J	.	.
=171	=171	=171
8C\L	(2dd\	.
8E-\	.	.
8G\	.	.
8E-\	.	.
8G\	4cc\)	.
8E-\J	.	.
=172	=172	=172
8C\L	4r	.
8E-\	.	.
8G\	(4gg'\	.
8E-\	.	.
8G\	4gg'\)	.
8E-\J	.	.
=173	=173	=173
8C\L	(8ff#\L	.
8D\	8gg\	.
8F\	8aa-\	.
8D\	8gg\	.
8F\	8ffn\	.
8D\J	8ee-\J	.
=174	=174	=174
8C\L	8dd\L	.
8D\	8cc\	.
8F\	8bn\	.
8D\	8dd\	.
8F\	8ff\	.
8D\J	8b\J	.
=175	=175	=175
8C\L	2dd\	p
8E-\	.	.
8G\	.	.
8E-\	.	.
8G\	4cc\)	.
8E-\J)	.	.
=176	=176	=176
8BB-\L	4r	.
8En\	.	.
8G\	(4cc'\	<
8E\	.	.
8G\	4cc'\)	.
8E\J	.	.
=177	=177	=177
(8AAn/L	(4.cc\	f
8C/	.	.
8F/	.	.
8C/	24dd\LL	.
.	24cc\	.
.	24bn\JJ	.
8F/	8cc\L)	.
8C/J	8dd'\J	.
=178	=178	=178
8AA-/L	(2ee-\	.
8C/	.	.
8E-/	.	.
8C/	.	.
8E-/	4f#/)	.
8C/J	.	.
=179	=179	=179
4GG/ 4BBn/)	4g/	.
4G\	8r	.
.	(8g/L	p
4r	8f#/	.
.	8g/J	.
=180	=180	=180
4r	8a-/L	.
.	8an/	.
4r	8b-/	.
.	8bn/	.
4A-\ (4c\	8cc/	.
.	8f#/J	.
=181	=181	=181
4G\ 4Bn\)	4g/)	.
4GG/	8r	.
*	*clefF4	*clefF4
.	(8G\L	.
4r	8F#\	.
.	8G\J	.
=182	=182	=182
4r	8A-\L	.
.	8An\	.
4r	8B-\	.
.	8Bn\	.
(4AA-/ 4C/	8c\	.
.	8F#\J	.
=183	=183	=183
4GG/) 4BBn/	4G\)	.
4GGG/	8r	.
*	*clefG2	*clefG2
.	(8ff#\L	.
4r	8gg\	.
.	8ff#\J	.
=184	=184	=184
4r	4gg\)	.
4G\	8r	.
.	(8f#/L	.
4r	8g/	.
.	8f#/J	.
=185	=185	=185
4r	4g/)	.
4GG/	8r	.
*	*clefF4	*clefF4
.	(8F#\L	.
4r	8G\	.
.	8F#\J	.
=186	=186	=186
4r	4G\)	.
4GGG/	8r	.
.	(8FF#/L	f
4r	8GG/	.
.	8FF#/J	.
=187	=187	=187
2.r	8GG/L	.
.	8DD/	.
.	8EE-/	.
.	8BBBn/	.
.	8CC/	.
.	8FFF#/J	.
=188	=188	=188
2.r	8GGG/L	.
.	8FFF#/	.
.	8GGG/	.
.	8FFF#/	.
.	8GGG/	.
.	8FFF#/J	.
=189	=189	=189
2.r	8GGG/L)	.
.	8BBBn/	.
.	8DD/	.
.	8GG/	.
.	8BBn/	.
.	8D/J	.
*	*clefG2	*clefG2
=190	=190	=190
2.r	8G/L	.
.	8Bn/	.
.	8d/	.
.	8g/	.
.	8bn/	.
.	8dd/J	.
=191	=191	=191
4r	2.ffn\ 2.fffn\	f
4AAA-/ 4AA-/	.	.
[4AA-\ [4A-\	.	.
=192	=192	=192
4AA-\] 4A-\]	[2.bn\ [2.bbn\	.
4GG/ 4G/	.	.
4FF/ 4F/	.	.
=193	=193	=193
2EEn/ 2En/	4b\] (4bb\]	.
.	4cc\ 4ccc\)	.
4BB-\ 4B-\	[4en/ [4een/	.
=194	=194	=194
2AAn\ 2An\	4e/] (4ee/]	.
.	4f\ 4ff\)	.
4A-\	[4ff#\	p
=195	=195	=195
2G\	(4ff#\]	.
.	4gg\)	.
4F#\ 4e-\	4cc\ 4aan\	.
=196	=196	=196
*^	*^	*
2e-/	2.G\	(2cc/	2g\	.
4fn/	.	8ee-/L	4bn\	.
.	.	8dd/J	.	.
*v	*v	*	*	*
*	*v	*v	*
=197	=197	=197
(8C\L	4cc\)	f
8G\	.	.
8E-\	8r	.
8G\	8cc'\L	p
8C\	8bn'\	.
8G\J	8cc'\J	.
=198	=198	=198
8BBn\L	(8cc#\L	f
8G\	8dd\J)	.
8F\	8r	.
8G\	8dd'\L	p
8BB\	8cc#'\	.
8G\J	8dd'\J	.
=199	=199	=199
8BB-\L	(8dd#\L	f
8G\	8een\J)	.
8C\	8r	.
8G\	8ee'\L	p
8BB-\	8dd#'\	.
8G\J	8ee'\J	.
=200	=200	=200
8AA-\L	(8een\L	f
8F\	8ff\J)	.
8C\	8r	.
8F\	8ff'\L	p
8AA-\	8ee'\	.
8F\J	8ff'\J	.
=201	=201	=201
4EE-/)	(8gg\L	f
.	8cc\	.
4r	8ccc\)	.
.	8ccc'\	p
4r	8ccc'\	.
.	8ccc'\J	.
=202	=202	=202
4F\ 4d\	8r	.
.	(8dd\L	.
4r	8aa-\)	.
.	8aa-'\	.
4r	8aa-'\	.
.	8aa-'\J	.
=203	=203	=203
4G\ 4e-\	8r	.
.	(8cc\L	.
4r	8gg\)	.
.	8gg'\	.
4r	8gg'\	.
.	8gg'\J	.
=204	=204	=204
4G\ 4d\	8r	.
.	(8f/L	.
4r	8bn/)	.
.	8b'/	.
4r	8b'/	.
.	8b'/J	.
=205	=205	=205
(8C\L	4e-/ 4g/ 4cc/	f
8G\	.	.
8E-\	8r	.
8G\	8c'/L	p
8C\	8Bn'/	.
8G\J	8c'/J	.
=206	=206	=206
8BBn\L	(8c#/L	f
8G\	8d/J)	.
8F\	8r	.
8G\	8d'/L	p
8BB\	8c#'/	.
8G\J	8d'/J	.
=207	=207	=207
8BB-\L	(8d#/L	f
8G\	8en/J)	.
8C\	8r	.
8G\	8e'/L	p
8BB-\	8d#'/	.
8G\J	8e'/J	.
=208	=208	=208
8AAn/L	(8en/L	f
8F/	8f/J)	.
8C/	8r	.
8F/	8f'/L	p
8AA/	8e'/	.
8F/J	8f'/J	.
=209	=209	=209
8AA-/L	(8f'/L	f
8E-/	8f#/J)	.
8C/	8r	.
8E-/	8f#'/L	p
8AA-/	8e#'/	.
8E-/J	8f#'/J	.
=210	=210	=210
8GG/L	(8f#/L	f
8E-/	8g/J)	.
8C/	8r	.
8E-/	8g'/L	p
8GG/	8f#'/	.
8E-/J	8g'/J	.
=211	=211	=211
2.FF#/)	(4an/	.
.	4cc\	.
.	[4ee-\	.
=212	=212	=212
2.F#\	4ee-\]	.
.	4dd\	.
.	[4cc\	.
=213	=213	=213
2.G\ 2.d\ 2.fn\	4cc\]	.
.	4bn\	.
.	[4ffn\	.
=214	=214	=214
2.A-\ 2.d\ 2.f\	4ff\]	.
.	4dd\	.
.	[4bbn\	<
=215	=215	=215
2.G\ 2.d\ 2.f\	4bb\]	.
.	4ff\	.
.	[4ddd\	.
=216	=216	=216
2.A-\ 2.d\ 2.f\	4ddd\]	.
.	4bbn\	.
.	[4fff\)	.
=217	=217	=217
4G\ 4d\ 4f\	8fff\L]	f
.	(8ddd\	.
4r	8bbn\	.
.	8aa-\	.
4r	8ff\	.
.	8dd\J	.
=218	=218	=218
2.r	8bn/L	.
.	8a-/	.
.	8f/	.
.	8d/	.
.	8Bn/	.
.	8A-/J)	.
=219	=219	=219
4G\	8r	.
.	(8g/L	.
4r	8a-/	.
.	8an/	.
4r	8b-/	.
.	8bn/J	.
=220	=220	=220
2.r	8cc\L	.
.	8dd\	.
.	8ee-\	.
.	8een\	.
.	8ff\	.
.	8ff#\J	.
*clefG2	*	*
=221	=221	=221
2.c/ 2.e-/	4gg\	p
.	4ee-\)	.
.	[4cc\	.
=222	=222	=222
2.d/ 2.f/	(4cc\]	.
.	4bn\)	.
.	[4aa-\	.
=223	=223	=223
2.Bn/ 2.d/	(4aa-\]	.
.	4gg\)	.
.	[4ffn\	.
=224	=224	=224
2.c/ 2.g/	(4ff\]	.
.	4ee-\)	.
.	[4gg\	.
=225	=225	=225
*^	*	*
2.g/	2e-\	(4gg\]	.
.	.	4ccc\	.
.	4en\	[4bb-\)	.
=226	=226	=226	=226
2a-/	2f\	(4bb-\]	.
.	.	4aa-\	.
4b-/	4g\	[4gg\)	.
=227	=227	=227	=227
[2.cc/	2a-\	(4gg\]	.
.	.	4ff\	.
.	4an\	[4ff#\)	.
=228	=228	=228	=228
(4cc/]	2g\	(4ff#\]	.
4bn/)	.	4gg\)	.
4r	4r	[4g/	.
*v	*v	*	*
*clefF4	*	*
=229	=229	=229
2.E-\ 2.G\	(4g/]	.
.	4e-/	.
.	4c/)	.
=230	=230	=230
[2.D;\ [2.F;\ [2.A-;\	(2.c;/	.
=231	=231	=231
4D\] 4F\] 4A-\]	4Bn/)	.
4r	4r	.
4r	4r	.
=232	=232	=232
2.r	4r	.
.	4r	.
.	[4a-/	.
=233	=233	=233
2.BBn/ 2.D/	(4a-/]	.
.	4g/	.
.	4f/)	.
=234	=234	=234
[2.BB-;\ [2.D-;\ [2.G;\	(2.f;/	.
=235	=235	=235
4BB-\] 4D-\] 4G\]	4en/)	.
4r	4r	.
4r	4r	.
=236	=236	=236
2.r	4r	.
.	4r	.
.	[4b-\	.
=237	=237	=237
2.En\ 2.c\	(4b-\]	.
.	4a-/	.
.	4g/)	.
=238	=238	=238
[2.F;\ [2.c;\	(2.g;/	.
=239	=239	=239
4F\] 4c\]	4a-/)	.
4r	4r	.
4r	4r	.
=240	=240	=240
2.r	4r	.
.	4r	.
.	[4bn\	.
=241	=241	=241
2.F\ 2.A-\	(4b\]	.
.	4cc\	.
.	4dd\)	.
=242	=242	=242
[2.F#;\ [2.An;\	(2.dd;\	.
=243	=243	=243
4F#\] 4A\]	8ff\L	.
.	8ee-\J)	.
4r	4r	.
4r	4r	.
=244	=244	=244
2.r	4r	.
.	4r	.
.	4cc\	.
=245	=245	=245
.	(16ddq/	.
2.An\ 2.e-\ (2.f#\	(4cc\)	.
.	4bn\	.
.	4cc\)	.
=246	=246	=246
4G\ 4e-\)	4g/	.
4r	4r	.
4r	4r	.
*	*clefF4	*clefF4
=247	=247	=247
4GG/ 4D/	4F\ 4Bn\	.
4r	4r	.
4r	4r	.
=248	=248	=248
4CC/ 4C/	4E-\ 4c\	.
4r	4r	.
*	*clefG2	*clefG2
4r	(16ff\LL	f
.	16ee-\	.
.	16dd\	.
.	16cc\JJ	.
=249	=249	=249
*^	*	*
4d/	8Bn\L	4gg\)	.
.	8G\	.	.
4e-/	8c\	4g\ 4gg\	.
.	8G\	.	.
4f/	8d\	4g\ 4gg\	.
.	8G\J	.	.
=250	=250	=250	=250
4e-/	8c\L	2g\ 2gg\	.
.	8G\	.	.
4e-/	8c\	.	.
.	8G\	.	.
4e-/	8c\	(16ff\LL	.
.	.	16ee-\	.
.	8G\J	16dd\	.
.	.	16cc\JJ	.
=251	=251	=251	=251
4d/	8Bn\L	4gg\)	.
.	8G\	.	.
4e-/	8c\	4g\ 4gg\	.
.	8G\	.	.
4f/	8d\	4g\ 4gg\	.
.	8G\J	.	.
=252	=252	=252	=252
4e-/	8c\L	2g\ 2gg\	.
.	8G\	.	.
4e-/	8c\	.	.
.	8G\	.	.
4e-/	8c\	(16ff\LL	.
.	.	16ee-\	.
.	8G\J	16dd\	.
.	.	16cc\JJ)	.
*v	*v	*	*
=253	=253	=253
4r	4bn\ 4dd\ 4aa-\	.
4FF/ 4F/	4r	.
4F\ 4f\	4r	.
=254	=254	=254
4r	4cc\ 4ee-\ 4gg\	.
4EE-/ 4E-/	4r	.
4E-\ 4e-\	4r	.
=255	=255	=255
4D\ 4d\	4r	.
4r	4dd\ 4ff\ 4bbn\	.
4r	4ff\ 4bb\ 4ddd\	.
=256	=256	=256
4BBn'\ 4Bn'\	4gg'\ 4ddd'\ 4fff'\	.
4r	4r	.
4r	4r	.
=257	=257	=257
2.r;	2.r;	.
=258	=258	=258
2.r	(2.ee-\	p
=259	=259	=259
2.c\ 2.e-\	2.f#/)	.
=260	=260	=260
2Bn\ 2d\ (2fn\	(4.g/	.
.	8a-/	.
4c\ 4e-\)	4g/)	.
=261	=261	=261
4F\	(8e-/ 8g/L	.
.	8d/) 8f/J	.
4G\	4c/ 4e-/	.
4GG/	4Bn/ 4d/	.
=262	=262	=262
4C/	4c/	.
4r	4r	.
4r	16ff\LL	f
.	16ee-\	.
.	16dd\	.
.	16cc\JJ	.
=263	=263	=263
*^	*	*
4d/	8Bn\L	4gg\	.
.	8G\	.	.
4e-/	8c\	4g\ 4gg\	.
.	8G\	.	.
4f/	8d\	4g\ 4gg\	.
.	8G\J	.	.
=264	=264	=264	=264
4e-/	8c\L	2g\ 2gg\	.
.	8G\	.	.
4e-/	8c\	.	.
.	8G\	.	.
4e-/	8c\	(16ff\LL	.
.	.	16ee-\	.
.	8G\J	16dd\	.
.	.	16cc\JJ	.
=265	=265	=265	=265
4d/	8Bn\L	4gg\)	.
.	8G\	.	.
4c/	8e-\	4g\ 4gg\	.
.	8G\	.	.
4f/	8d\	4g\ 4gg\	.
.	8G\J	.	.
=266	=266	=266	=266
4e-/	8c\L	2g\ 2gg\	.
.	8G\	.	.
4e-/	8c\	.	.
.	8G\	.	.
4e-/	8c\	(16ff\LL	.
.	.	16ee-\	.
.	8G\J	16dd\	.
.	.	16cc\JJ)	.
*v	*v	*	*
=267	=267	=267
4r	4bn\ 4dd\ 4aa-\	.
4FF/ 4F/	4r	.
4F\ 4f\	4r	.
=268	=268	=268
4r	4cc\ 4ee-\ 4gg\	.
4EE-/ 4E-/	4r	.
4E-\ 4e-\	4r	.
=269	=269	=269
4D\ 4d\	4r	.
4r	4dd\ 4ff\ 4bbn\	.
4r	4ff\ 4bb\ 4ddd\	.
=270	=270	=270
4BBn'\ 4Bn'\	4gg'\ 4ddd'\ 4fff'\	.
4r	4r	.
4r	4r	.
=271	=271	=271
2.r;	2.r;	.
=272	=272	=272
4D-'\ 4d-'\	4r	.
4BB-'\ 4B-'\	4g'\ 4b-'\ 4een'\	.
4GG'/ 4G'/	4b-'\ 4ee'\ 4gg'\	.
=273	=273	=273
4EEn'/ 4En'/	4dd-\ 4gg\ 4bb-\	p
4r	4r	.
4r	4r	.
=274	=274	=274
2.r;	2.r;	.
=275	=275	=275
(4F\	2.r	.
4A-\	.	.
4c\	.	.
=276	=276	=276
4En\	2.r	.
4G\	.	.
4B-\	.	.
=277	=277	=277
4F\	4cc\	.
4A-\	4r	.
4c\	4r	.
=278	=278	=278
4En\	4cc\	.
4G\	4r	.
4B-\	8r	.
.	(8cc\	.
=279	=279	=279
4F\	2dd-\	.
4A-\	.	.
4c\	4cc\)	.
=280	=280	=280
4En\	4r	.
4G\	4r	.
4B-\	8r	.
.	(8ccc\	.
=281	=281	=281
4F\	2ddd-\	.
4A-\	.	.
4c\	4ccc\)	.
=282	=282	=282
4En\	4r	.
4G\	4r	.
4B-\	8r	.
.	(8c/	.
=283	=283	=283
4F\	2d-/	.
4A-\	.	.
4F\	4c/)	<
=284	=284	=284
4F#\	4r	.
4An\	4r	.
4e-\	8r	.
.	8ccc\	.
=285	=285	=285
4G\	2.cc\	f
4c\	.	.
4e-\	.	.
=286	=286	=286
4G\	2.dd\	.
4Bn\	.	.
4fn\)	.	.
=287	=287	=287
.	16ccq/LL	.
.	16ddq/JJ	.
4c\ 4e-\	(8cc/L	.
.	8g/	p
4r	8e-/	.
.	8g/	.
4r	8e-/	.
.	8g/J	.
=288	=288	=288
(4G\	8f/L	.
.	8g/	.
4An\	8f/	.
.	8g/	.
4Bn\	8f/	.
.	8g/J)	.
*	*clefF4	*clefF4
=289	=289	=289
4c\)	(8e-\L	.
.	8c\	.
4r	8G\	.
.	8c\	.
4r	8E-\	.
.	8G\J	.
*clefG2	*	*
=290	=290	=290
(4g/	8F\L	.
.	8G\	.
4an/	8F\	.
.	8G\	.
4bn\	8F\	.
.	8G\J	.
=291	=291	=291
4cc\)	8E-\L	.
.	8G\	.
4r	8E-\	.
.	8G\	.
4r	8E-\	.
.	8G\J	.
=292	=292	=292
(4gg\	8F\L	.
.	8G\	.
4aan\	8F\	.
.	8G\	.
4bbn\	8F\	.
.	8G\J	.
=293	=293	=293
2.ccc\)	8E-\L	f
.	8G\	.
.	8E-\	.
.	8G\	.
.	8E-\	.
.	8G\J	.
=294	=294	=294
2.bb-\	8En\L	.
.	8c\	.
.	8E\	.
.	8c\	.
.	8E\	.
.	8c\J	.
=295	=295	=295
2.aa-\	8F\L	.
.	8c\	.
.	8F\	.
.	8c\	.
.	8F\	.
.	8c\J	.
=296	=296	=296
2.ff\	8G\L	.
.	8Bn\	.
.	8G\	.
.	8B\	.
.	8G\	.
.	8B\J	.
=297	=297	=297
2.ee-\	8A-\L	.
.	8c\	.
.	8A-\	.
.	8c\	.
.	8A-\	.
.	8c\J	.
=298	=298	=298
2.dd-\	8F\L	.
.	8A-\	.
.	8F\	.
.	8A-\	.
.	8F\	.
.	8A-\J	.
=299	=299	=299
2.cc\	8G\L	.
.	8e-\	.
.	8G\	.
.	8e-\	.
.	8G\	.
.	8e-\J	.
=300	=300	=300
2.bn\	8G\L	.
.	8d\	.
.	8G\	.
.	8d\	.
.	8G\	.
.	8d\J)	.
=301	=301	=301
(8e-/L	2.A-\	.
8cc/	.	.
8e-/	.	.
8cc/	.	.
8e-/	.	.
8cc/J	.	.
*	*clefG2	*clefG2
=302	=302	=302
8e-/L	2.ccc\	.
8cc/	.	.
8e-/	.	.
8cc/	.	.
8e-/	.	.
8cc/J	.	.
=303	=303	=303
8e-/L	2.eee-\	.
8cc/	.	.
8e-/	.	.
8cc/	.	.
8e-/)	.	.
8cc/J	.	.
*	*clefF4	*clefF4
=304	=304	=304
(8e-/L	2.FFF#/	.
8cc/	.	.
8e-/	.	.
8cc/	.	.
8e-/	.	.
8cc/J	.	.
=305	=305	=305
8e-/L	2.GGG/	.
8cc/	.	.
8e-/	.	.
8cc/	.	.
8e-/	.	.
8cc/J	.	.
=306	=306	=306
8e-/L	2.AAA-/	.
8cc/	.	.
8e-/	.	.
8cc/	.	.
8e-/	.	.
8cc/J	.	.
=307	=307	=307
8d/L	2.FFFn/	.
8cc/	.	.
8d/	.	.
8cc/	.	.
8d/	.	.
8cc/J	.	.
=308	=308	=308
8d/L	2.GGG/	.
8bn/	.	.
8d/	.	.
8b/	.	.
8d/	.	.
8b/J	.	.
=309	=309	=309
8e-/L	4CC/	.
8cc/	.	.
8g/	4r	.
8e-/	.	.
8g/	4r	.
8e-/J	.	.
*	*clefG2	*clefG2
=310	=310	=310
8d/L	4r	.
8f/	.	.
8g/	(8gg\L	.
8f/	8aan\	.
8g/	8bbn\	.
8f/J	8gg\J	.
=311	=311	=311
8c/L	4ccc\)	.
8e-/	.	.
8g/	(8cc\L	.
8e-/	8dd\	.
8g/	8ee-\	.
8e-/J)	8cc\J	.
=312	=312	=312
(8d/L	4gg\)	.
8f/	.	.
8g/	(8bn\L	.
8f/	8cc\	.
8g/	8dd\	.
8f/J	8b\J	.
=313	=313	=313
8c/L	4cc\)	.
8e-/	.	.
8g/	4r	.
8e-/	.	.
8g/	4r	.
8e-/J	.	.
*	*clefF4	*clefF4
=314	=314	=314
8d/L	4r	.
8f/	.	.
8g/	(8GG/L	.
8f/	8AAn/	.
8g/	8BBn/	.
8f/J	8GG/J	.
=315	=315	=315
8c/L	4C/)	.
8e-/	.	.
8g/	(8CC/L	.
8e-/	8DD/	.
8g/	8EE-/	.
8e-/J	8CC/J	.
=316	=316	=316
8d/L	4GG/)	.
8f/	.	.
8g/	(8GGG/L	.
8f/)	8AAAn/	.
8g/	8BBBn/	.
8f/J	8GGG/J	.
=317	=317	=317
4c/ 4e-/	4CC/)	.
4r	4r	.
4r	4r	.
*clefF4	*clefG2	*clefG2
=318	=318	=318
4C\ 4E-\ 4G\ 4c\	4g\ 4cc\ 4ee-\ 4gg\	.
4r	4r	.
4r	4r	.
=319	=319	=319
4CC/ 4EE-/ 4GG/ 4C/	4cc\ 4ee-\ 4gg\ 4ccc\	.
4r	4r	.
4r	4r	.
==	==	==
*-	*-	*-
!!!SMS: Alte Mozart-Ausgabe, Band 20, Breitkopf &amp; H&auml;rtel 1877-1883.
!!!ONB: Stich und Druck von Breitkopf &amp; H&auml;rtel in Leipzig
!!!ONB: Ausgegeben 1878
!!!ENC: Craig Stuart Sapp
!!!END: 2009/10/01/
!!!title: @{OTL}, K 457, @{OMV}
!!!hum2abc: --no-tempo -s 0.68 --spacing 1.85 -p "%gracespace  0 6.0 12.0"
